www/assets/icons/query_stats.svg

<svg xmlns="http://www.w3.org/2000/svg" width="24" height="24" viewBox="0 0 24 24" fill='currentColor'><path d="M19.88 17.97c.44-.7.7-1.51.7-2.39 0-2.49-2.01-4.5-4.5-4.5s-4.5 2.01-4.5 4.5 2.01 4.5 4.49 4.5c.88 0 1.7-.26 2.39-.7l3.12 3.12L23 21.08zm-3.8.11a2.5 2.5 0 0 1 0-5 2.5 2.5 0 0 1 0 5m-.36-8.5c-.74.02-1.45.18-2.1.45l-.55-.83-3.8 6.18-3.01-3.52-3.63 5.81L1 16.5l5-8L9 12l4-6.5zm2.59.5c-.64-.28-1.33-.45-2.05-.49l5.12-8.09L23 2.68z"/></svg>

<svg width="24" height="24" viewBox="0 0 24 24" xmlns="http://www.w3.org/2000/svg" fill='currentColor'><path d="M19.88 17.97C20.32 17.27 20.58 16.46 20.58 15.58C20.58 13.09 18.57 11.08 16.08 11.08C13.59 11.08 11.58 13.09 11.58 15.58C11.58 18.07 13.59 20.08 16.07 20.08C16.95 20.08 17.77 19.82 18.46 19.38L21.58 22.5L23 21.08L19.88 17.97ZM16.08 18.08C14.7 18.08 13.58 16.96 13.58 15.58C13.58 14.2 14.7 13.08 16.08 13.08C17.46 13.08 18.58 14.2 18.58 15.58C18.58 16.96 17.46 18.08 16.08 18.08ZM15.72 9.58C14.98 9.6 14.27 9.76 13.62 10.03L13.07 9.2L9.27 15.38L6.26 11.86L2.63 17.67L1 16.5L6 8.5L9 12L13 5.5L15.72 9.58ZM18.31 10.08C17.67 9.8 16.98 9.63 16.26 9.59L21.38 1.5L23 2.68L18.31 10.08Z"/></svg>
